layouts/icon-pack/armor_clothing_head.svg

<?xml version="1.0" encoding="UTF-8"?>
<svg width="1200pt" height="1200pt" version="1.1" viewBox="0 0 1200 1200" xmlns="http://www.w3.org/2000/svg">
 <g fill="#fff">
  <path d="m1069.9 143.65c27.797-20.438 19.031-64.266-14.461-72.023-43.23-10.129-87.457-15.402-131.86-15.727-148.95-0.44531-286.55 80.367-362.98 209.6-32.648 55.195-80.344 128.6-131.98 184.08-3.1289 3.3438-5.1133 7.5938-5.6719 12.141-0.55469 4.543 0.34766 9.1484 2.5781 13.148 18.344 32.918 40.746 63.406 66.68 90.75 2.8594 2.9961 6.9375 4.5078 11.055 4.0977 4.1211-0.40625 7.8242-2.6875 10.039-6.1836 5.9961-9.3125 15.473-15.836 26.312-18.109s22.137-0.10547 31.367 6.0156l80.602 53.602c9.2578 6.1914 15.699 15.781 17.938 26.691 2.2383 10.91 0.085938 22.262-5.9844 31.598-1.0508 1.6016-1.2852 3.6055-0.63672 5.4062 0.65234 1.8047 2.1094 3.1953 3.9414 3.7578 63.938 18.75 135.45 22.656 214.55 11.719 5.3945-0.78516 10.285-3.6016 13.68-7.8672 3.3906-4.2695 5.0273-9.668 4.5781-15.102-0.375-4.9688-0.67969-9.9844-0.91406-15.047 0 0-33.867-351.75 171.16-502.55z"/>
  <path d="m854.41 1143.8s145.62 9.0703 262.92-63.867c35.156-21.844 33.773-74.086-2.4609-93.938-66.234-36.305-158.51-107.3-197.72-232.92-1.4805-4.8867-4.6523-9.0859-8.9453-11.848-4.293-2.7617-9.4336-3.9023-14.492-3.2227-31.41 4.6016-63.105 6.9531-94.852 7.0312-52.539 0.375-104.82-7.2578-155.06-22.641-4.4062-1.3945-9.1484-1.3008-13.496 0.26172s-8.0625 4.5078-10.574 8.3867l-9.0703 14.062c-5.9844 9.3164-15.457 15.844-26.297 18.117-10.836 2.2734-22.133 0.10156-31.359-6.0234l-80.766-53.578c-9.2539-6.1914-15.699-15.781-17.941-26.688-2.2422-10.91-0.097656-22.262 5.9648-31.602l4.5469-7.0312c2.4922-3.875 3.5781-8.4883 3.0703-13.07-0.50781-4.5781-2.5781-8.8438-5.8594-12.078v-0.11719c-29.562-29.492-55.324-62.559-76.688-98.438-2.7422-4.6406-7.1602-8.0547-12.344-9.543-5.1836-1.4844-10.738-0.92969-15.523 1.5508-34.406 17.547-72.984 25.266-111.49 22.312-40.195-3.1406-92.695-12.469-133.03-38.086-25.102-15.914-57.328 3.75-55.758 33.539 9.8906 186.89 109.78 619.43 797.23 619.43z"/>
 </g>
</svg>

<?xml version="1.0" encoding="UTF-8" standalone="no"?>
<!DOCTYPE svg PUBLIC "-//W3C//DTD SVG 1.1//EN" "http://www.w3.org/Graphics/SVG/1.1/DTD/svg11.dtd">
<svg width="100%" height="100%" viewBox="0 0 511 512" version="1.1" xmlns="http://www.w3.org/2000/svg" xmlns:xlink="http://www.w3.org/1999/xlink" xml:space="preserve" xmlns:serif="http://www.serif.com/" style="fill-rule:evenodd;clip-rule:evenodd;stroke-linejoin:round;stroke-miterlimit:2;">
    <g transform="matrix(1,0,0,1,-57.1309,-55.8982)">
        <g transform="matrix(0.470475,0,0,0.470475,30.2522,29.5995)">
            <path d="M1069.9,143.65C1097.7,123.212 1088.93,79.384 1055.44,71.627C1012.21,61.498 967.982,56.225 923.579,55.9C774.629,55.455 637.029,136.267 560.599,265.5C527.951,320.695 480.255,394.1 428.619,449.58C425.49,452.924 423.506,457.174 422.947,461.721C422.392,466.264 423.295,470.869 425.525,474.869C443.869,507.787 466.271,538.275 492.205,565.619C495.065,568.615 499.143,570.127 503.26,569.717C507.381,569.31 511.084,567.029 513.299,563.533C519.295,554.221 528.772,547.697 539.611,545.424C550.45,543.151 561.748,545.319 570.978,551.44L651.58,605.042C660.838,611.233 667.279,620.823 669.518,631.733C671.757,642.643 669.604,653.995 663.534,663.331C662.483,664.932 662.249,666.936 662.897,668.737C663.549,670.542 665.006,671.932 666.838,672.495C730.776,691.245 802.288,695.151 881.388,684.214C886.783,683.429 891.673,680.612 895.068,676.347C898.459,672.077 900.096,666.679 899.647,661.245C899.272,656.276 898.967,651.26 898.733,646.198C898.733,646.198 864.866,294.448 1069.89,143.648L1069.9,143.65Z" style="fill:white;fill-rule:nonzero;"/>
            <path d="M854.41,1143.8C854.41,1143.8 1000.03,1152.87 1117.33,1079.93C1152.49,1058.09 1151.1,1005.85 1114.87,985.995C1048.63,949.69 956.359,878.695 917.149,753.075C915.669,748.188 912.497,743.989 908.204,741.227C903.911,738.465 898.77,737.325 893.712,738.004C862.302,742.606 830.607,744.957 798.86,745.036C746.321,745.411 694.04,737.778 643.8,722.395C639.394,721 634.651,721.094 630.304,722.656C625.956,724.219 622.241,727.164 619.73,731.043L610.66,745.105C604.675,754.421 595.203,760.949 584.363,763.222C573.527,765.495 562.23,763.323 553.004,757.199L472.238,703.621C462.984,697.429 456.539,687.84 454.297,676.933C452.054,666.023 454.199,654.671 460.261,645.331L464.808,638.299C467.3,634.424 468.386,629.811 467.879,625.229C467.371,620.651 465.3,616.386 462.019,613.151L462.019,613.034C432.457,583.542 406.695,550.475 385.331,514.596C382.589,509.956 378.171,506.541 372.987,505.053C367.804,503.569 362.249,504.123 357.464,506.604C323.058,524.151 284.48,531.87 245.974,528.916C205.779,525.775 153.279,516.447 112.944,490.83C87.842,474.916 55.616,494.58 57.186,524.369C67.077,711.259 166.966,1143.8 854.416,1143.8L854.41,1143.8Z" style="fill:white;fill-rule:nonzero;"/>
        </g>
    </g>
</svg>
